docs/public/sponsors/vuetify-logo-light-text.svg

<svg fill="none" height="424" viewBox="0 0 1370 424" width="1370" xmlns="http://www.w3.org/2000/svg"><path d="m199.723 205.485-80.235-189.4771h80.235z" fill="#1697f6"/><path d="m117.949 73.1976h-89.949l171.723 334.9604v-147.051z" fill="#7bc6ff"/><path d="m199.723 16v189.485l80.232-189.477h-80.232" fill="#1867c0"/><path d="m281.487 73.1976h89.949l-171.713 334.9604v-147.051z" fill="#aeddff"/><path d="m511.361 277.646 60.938-175.927h30.762l-79.102 213.281h-24.902l-78.955-213.281h30.615zm209.912 21.68c-10.546 12.403-26.025 18.604-46.435 18.604-16.895 0-29.785-4.883-38.672-14.649-8.789-9.863-13.232-24.414-13.33-43.652v-103.125h27.1v102.392c0 24.024 9.765 36.036 29.296 36.036 20.704 0 34.473-7.715 41.309-23.145v-115.283h27.1v158.496h-25.782zm133.448 18.604c-21.485 0-38.965-7.032-52.442-21.094-13.476-14.16-20.215-33.057-20.215-56.69v-4.98c0-15.723 2.979-29.736 8.936-42.041 6.055-12.402 14.453-22.07 25.195-29.004 10.84-7.031 22.559-10.547 35.157-10.547 20.605 0 36.621 6.787 48.046 20.362 11.426 13.574 17.139 33.007 17.139 58.3v11.28h-107.373c.391 15.625 4.932 28.271 13.623 37.939 8.789 9.57 19.922 14.356 33.399 14.356 9.57 0 17.675-1.954 24.316-5.86s12.451-9.082 17.432-15.527l16.552 12.89c-13.281 20.411-33.203 30.616-59.765 30.616zm-3.369-142.09c-10.938 0-20.118 4.004-27.54 12.012-7.421 7.91-12.011 19.043-13.769 33.398h79.395v-2.051c-.782-13.769-4.493-24.414-11.133-31.933-6.641-7.618-15.625-11.426-26.953-11.426zm133.447-57.715v38.379h29.591v20.947h-29.591v98.291c0 6.348 1.318 11.133 3.955 14.356 2.637 3.125 7.129 4.687 13.476 4.687 3.13 0 7.42-.586 12.89-1.758v21.973c-7.13 1.953-14.06 2.93-20.8 2.93-12.109 0-21.24-3.662-27.392-10.987-6.153-7.324-9.229-17.724-9.229-31.201v-98.291h-28.857v-20.947h28.857v-38.379zm90.821 196.875h-27.1v-158.496h27.1zm-29.3-200.537c0-4.395 1.32-8.106 3.96-11.133 2.73-3.027 6.74-4.5409 12.01-4.5409s9.28 1.5139 12.01 4.5409c2.74 3.027 4.1 6.738 4.1 11.133 0 4.394-1.36 8.057-4.1 10.986-2.73 2.93-6.74 4.395-12.01 4.395s-9.28-1.465-12.01-4.395c-2.64-2.929-3.96-6.592-3.96-10.986zm86.14 200.537v-137.549h-25.05v-20.947h25.05v-16.26c0-16.992 4.54-30.127 13.62-39.404 9.08-9.2775 21.92-13.9162 38.52-13.9162 6.25 0 12.45.8301 18.61 2.4903l-1.47 21.9729c-4.59-.879-9.47-1.319-14.65-1.319-8.79 0-15.57 2.588-20.36 7.764-4.78 5.078-7.18 12.402-7.18 21.973v16.699h33.84v20.947h-33.84v137.549zm142.82-39.697 36.91-118.799h29.01l-63.73 182.959c-9.86 26.367-25.53 39.551-47.02 39.551l-5.12-.44-10.11-1.904v-21.973l7.32.586c9.18 0 16.31-1.855 21.39-5.566 5.18-3.711 9.42-10.498 12.74-20.362l6.01-16.113-56.54-156.738h29.59z" fill="#000" fill-opacity=".87"/></svg>

<svg width="1370" height="424" viewBox="0 0 1370 424" fill="none" xmlns="http://www.w3.org/2000/svg">
<path d="M199.723 205.485L119.488 16.0079H199.723V205.485Z" fill="#1697F6"/>
<path d="M117.949 73.1976H28L199.723 408.158V261.107L117.949 73.1976Z" fill="#7BC6FF"/>
<path d="M199.723 16L199.723 205.485L279.955 16.008H199.723" fill="#1867C0"/>
<path d="M281.487 73.1976H371.436L199.723 408.158V261.107L281.487 73.1976Z" fill="#AEDDFF"/>
<path d="M511.361 277.646L572.299 101.719H603.061L523.959 315H499.057L420.102 101.719H450.717L511.361 277.646ZM721.273 299.326C710.727 311.729 695.248 317.93 674.838 317.93C657.943 317.93 645.053 313.047 636.166 303.281C627.377 293.418 622.934 278.867 622.836 259.629V156.504H649.936V258.896C649.936 282.92 659.701 294.932 679.232 294.932C699.936 294.932 713.705 287.217 720.541 271.787V156.504H747.641V315H721.859L721.273 299.326ZM854.721 317.93C833.236 317.93 815.756 310.898 802.279 296.836C788.803 282.676 782.064 263.779 782.064 240.146V235.166C782.064 219.443 785.043 205.43 791 193.125C797.055 180.723 805.453 171.055 816.195 164.121C827.035 157.09 838.754 153.574 851.352 153.574C871.957 153.574 887.973 160.361 899.398 173.936C910.824 187.51 916.537 206.943 916.537 232.236V243.516H809.164C809.555 259.141 814.096 271.787 822.787 281.455C831.576 291.025 842.709 295.811 856.186 295.811C865.756 295.811 873.861 293.857 880.502 289.951C887.143 286.045 892.953 280.869 897.934 274.424L914.486 287.314C901.205 307.725 881.283 317.93 854.721 317.93ZM851.352 175.84C840.414 175.84 831.234 179.844 823.812 187.852C816.391 195.762 811.801 206.895 810.043 221.25H889.438V219.199C888.656 205.43 884.945 194.785 878.305 187.266C871.664 179.648 862.68 175.84 851.352 175.84ZM984.799 118.125V156.504H1014.39V177.451H984.799V275.742C984.799 282.09 986.117 286.875 988.754 290.098C991.391 293.223 995.883 294.785 1002.23 294.785C1005.36 294.785 1009.65 294.199 1015.12 293.027V315C1007.99 316.953 1001.06 317.93 994.32 317.93C982.211 317.93 973.08 314.268 966.928 306.943C960.775 299.619 957.699 289.219 957.699 275.742V177.451H928.842V156.504H957.699V118.125H984.799ZM1075.62 315H1048.52V156.504H1075.62V315ZM1046.32 114.463C1046.32 110.068 1047.64 106.357 1050.28 103.33C1053.01 100.303 1057.02 98.7891 1062.29 98.7891C1067.56 98.7891 1071.57 100.303 1074.3 103.33C1077.04 106.357 1078.4 110.068 1078.4 114.463C1078.4 118.857 1077.04 122.52 1074.3 125.449C1071.57 128.379 1067.56 129.844 1062.29 129.844C1057.02 129.844 1053.01 128.379 1050.28 125.449C1047.64 122.52 1046.32 118.857 1046.32 114.463ZM1132.46 315V177.451H1107.41V156.504H1132.46V140.244C1132.46 123.252 1137 110.117 1146.08 100.84C1155.16 91.5625 1168 86.9238 1184.6 86.9238C1190.85 86.9238 1197.05 87.7539 1203.21 89.4141L1201.74 111.387C1197.15 110.508 1192.27 110.068 1187.09 110.068C1178.3 110.068 1171.52 112.656 1166.73 117.832C1161.95 122.91 1159.55 130.234 1159.55 139.805V156.504H1193.39V177.451H1159.55V315H1132.46ZM1275.28 275.303L1312.19 156.504H1341.2L1277.47 339.463C1267.61 365.83 1251.94 379.014 1230.45 379.014L1225.33 378.574L1215.22 376.67V354.697L1222.54 355.283C1231.72 355.283 1238.85 353.428 1243.93 349.717C1249.11 346.006 1253.35 339.219 1256.67 329.355L1262.68 313.242L1206.14 156.504H1235.73L1275.28 275.303Z" fill="black" fill-opacity="0.87"/>
</svg>
